public/assets/images/icons/briefcase.svg

<svg width="23" height="17" viewBox="0 0 23 17" fill="none" xmlns="http://www.w3.org/2000/svg">
<path d="M9.5625 0C8.424 0 7.5 0.939 7.5 2.085V2.25H2.25C1.01025 2.25 0 3.26025 0 4.5V15.375C0 15.6877 0.14475 15.9563 0.34425 16.1558C0.54375 16.3553 0.81225 16.5 1.125 16.5H21.375C21.6877 16.5 21.9563 16.3553 22.1558 16.1558C22.3553 15.9563 22.5 15.6877 22.5 15.375V4.5C22.5 3.26025 21.4897 2.25 20.25 2.25H15V2.085C15 0.93825 14.076 0 12.9375 0H9.5625ZM9.5625 0.75H12.9375C13.6688 0.75 14.25 1.3365 14.25 2.085V2.25H8.25V2.085C8.25 1.3365 8.83125 0.75 9.5625 0.75ZM2.25 3H3.75V7.5C3.65054 7.5 3.55516 7.53951 3.48484 7.60983C3.41451 7.68016 3.375 7.77554 3.375 7.875V8.25H2.25C1.41225 8.25 0.75 7.58775 0.75 6.75V4.5C0.75 3.66225 1.41225 3 2.25 3ZM4.5 3H6V7.5H4.5V3ZM6.75 3H15.75V7.5C15.6505 7.5 15.5552 7.53951 15.4848 7.60983C15.4145 7.68016 15.375 7.77554 15.375 7.875V8.25H7.125V7.875C7.125 7.77554 7.08549 7.68016 7.01517 7.60983C6.94484 7.53951 6.84946 7.5 6.75 7.5V3ZM16.5 3H18V7.5H16.5V3ZM18.75 3H20.25C21.0877 3 21.75 3.66225 21.75 4.5V6.75C21.75 7.58775 21.0877 8.25 20.25 8.25H19.125V7.875C19.125 7.77554 19.0855 7.68016 19.0152 7.60983C18.9448 7.53951 18.8495 7.5 18.75 7.5V3ZM4.125 8.25H6.375V9.75H5.625V9H4.875V9.75H4.125V8.25ZM16.125 8.25H18.375V9.75H17.625V9H16.875V9.75H16.125V8.25ZM0.75 8.41425C1.149 8.77425 1.6725 9 2.25 9H3.375V10.125C3.375 10.2245 3.41451 10.3198 3.48484 10.3902C3.55516 10.4605 3.65054 10.5 3.75 10.5V15.75H1.125C1.02944 15.7393 0.94072 15.6952 0.8745 15.6255C0.804778 15.5593 0.760684 15.4706 0.75 15.375V8.41425ZM21.75 8.41425V15.375C21.7393 15.4705 21.6952 15.5592 21.6255 15.6255C21.5593 15.6952 21.4706 15.7393 21.375 15.75H18.75V10.5C18.8495 10.5 18.9448 10.4605 19.0152 10.3902C19.0855 10.3198 19.125 10.2245 19.125 10.125V9H20.25C20.8275 9 21.351 8.77425 21.75 8.41425ZM7.125 9H15.375V10.125C15.375 10.2245 15.4145 10.3198 15.4848 10.3902C15.5552 10.4605 15.6505 10.5 15.75 10.5V15.75H6.75V10.5C6.84946 10.5 6.94484 10.4605 7.01517 10.3902C7.08549 10.3198 7.125 10.2245 7.125 10.125V9ZM4.5 10.5H6V15.75H4.5V10.5ZM16.5 10.5H18V15.75H16.5V10.5Z" fill="white"/>
</svg>

<svg width="23" height="17" fill="none" xmlns="http://www.w3.org/2000/svg"><path d="M9.563 0C8.424 0 7.5.939 7.5 2.085v.165H2.25C1.01 2.25 0 3.26 0 4.5v10.875c0 .313.145.581.344.78.2.2.468.345.781.345h20.25c.313 0 .581-.145.78-.344.2-.2.345-.468.345-.781V4.5c0-1.24-1.01-2.25-2.25-2.25H15v-.165C15 .938 14.076 0 12.937 0H9.563Zm0 .75h3.374c.732 0 1.313.587 1.313 1.335v.165h-6v-.165c0-.748.581-1.335 1.313-1.335ZM2.25 3h1.5v4.5a.375.375 0 0 0-.375.375v.375H2.25c-.838 0-1.5-.662-1.5-1.5V4.5c0-.838.662-1.5 1.5-1.5ZM4.5 3H6v4.5H4.5V3Zm2.25 0h9v4.5a.375.375 0 0 0-.375.375v.375h-8.25v-.375A.375.375 0 0 0 6.75 7.5V3Zm9.75 0H18v4.5h-1.5V3Zm2.25 0h1.5c.838 0 1.5.662 1.5 1.5v2.25c0 .838-.662 1.5-1.5 1.5h-1.125v-.375a.375.375 0 0 0-.375-.375V3ZM4.125 8.25h2.25v1.5h-.75V9h-.75v.75h-.75v-1.5Zm12 0h2.25v1.5h-.75V9h-.75v.75h-.75v-1.5ZM.75 8.414c.399.36.923.586 1.5.586h1.125v1.125a.375.375 0 0 0 .375.375v5.25H1.125a.408.408 0 0 1-.25-.124.408.408 0 0 1-.125-.251v-6.96Zm21 0v6.961a.409.409 0 0 1-.125.25.408.408 0 0 1-.25.125H18.75V10.5a.375.375 0 0 0 .375-.375V9h1.125c.578 0 1.101-.226 1.5-.586ZM7.125 9h8.25v1.125a.375.375 0 0 0 .375.375v5.25h-9V10.5a.375.375 0 0 0 .375-.375V9ZM4.5 10.5H6v5.25H4.5V10.5Zm12 0H18v5.25h-1.5V10.5Z" fill="#fff"/></svg>
